X: 27298
T: Miss Wharton Duff
R: hornpipe
M: 4/4
K: Cdorian
(3FGA|B4 c4|dfdB AcAF|E2gzD2fz|Czec dBAF|
B4 c4|dfdB AcAF|E2gzD2bz|dBcA Bz (3FGA|
B4 c4|dfdB AcAF|E2gzD2fz|Czec dBAF|
B4 c4|dfdB AcAF|E2gzD2bz|dBcA Bz (3fga|
b2f2 edcB|bfed edcB|e2gzG2cz|ecdB BAGF|
E2gzD2fz|Czec dBAF|bfdB ecdB|1 FBAc B2 (3fga|2 FBAc B4||

